X: 19023
T: International, The
R: reel
M: 4/4
K: Cmajor
ED||CE ~E2 G2 eg|fedB cBcA|GFEG A2 Gc|
ecAG ECCD|CE ~E2 G2 eg|fedB cBcA|
G2 EG (3ABc GE|1 FEDF EFDE:|2 FEDF EC C2||
c2 ~c2 gcgb|ad ~d2 eEED|CEG^G AF ~F2|
EGAc ecAB|c2 ~c2 gcgb|ad ~d2 eEED|
CEGE FEDc|1 Bg^fg ecAB:|2 Bg^fg ec c2||

